SVG_Azure_All/Kubernetes Workload.svg

<?xml version="1.0" encoding="UTF-8" standalone="no"?>
<!-- Generated by Microsoft Visio, SVG Export Kubernetes Workload.svg Page-1 -->

<svg
   xmlns:dc="http://purl.org/dc/elements/1.1/"
   xmlns:cc="http://creativecommons.org/ns#"
   xmlns:rdf="http://www.w3.org/1999/02/22-rdf-syntax-ns#"
   xmlns:svg="http://www.w3.org/2000/svg"
   xmlns="http://www.w3.org/2000/svg"
   xmlns:xlink="http://www.w3.org/1999/xlink"
   xmlns:sodipodi="http://sodipodi.sourceforge.net/DTD/sodipodi-0.dtd"
   xmlns:inkscape="http://www.inkscape.org/namespaces/inkscape"
   width="0.78741109in"
   height="0.59054804in"
   viewBox="0 0 56.693507 42.519412"
   xml:space="preserve"
   class="st4"
   version="1.1"
   id="svg50"
   sodipodi:docname="Kubernetes Workload.svg"
   style="font-size:12px;overflow:visible;color-interpolation-filters:sRGB;fill:none;fill-rule:evenodd;stroke-linecap:square;stroke-miterlimit:3"
   inkscape:version="0.92.5 (2060ec1f9f, 2020-04-08)"><metadata
   id="metadata54"><rdf:RDF><cc:Work
       rdf:about=""><dc:format>image/svg+xml</dc:format><dc:type
         rdf:resource="http://purl.org/dc/dcmitype/StillImage" /></cc:Work></rdf:RDF></metadata><sodipodi:namedview
   pagecolor="#ffffff"
   bordercolor="#666666"
   borderopacity="1"
   objecttolerance="10"
   gridtolerance="10"
   guidetolerance="10"
   inkscape:pageopacity="0"
   inkscape:pageshadow="2"
   inkscape:window-width="640"
   inkscape:window-height="480"
   id="namedview52"
   showgrid="false"
   inkscape:zoom="1.601301"
   inkscape:cx="37.795408"
   inkscape:cy="28.342455"
   inkscape:window-x="0"
   inkscape:window-y="0"
   inkscape:window-maximized="0"
   inkscape:current-layer="svg50" />
	<style
   type="text/css"
   id="style2">
	<![CDATA[
		.st1 {fill:url(#grad0-6);stroke:none;stroke-linecap:butt;stroke-width:34}
		.st2 {fill:none;stroke:none;stroke-linecap:butt;stroke-width:34}
		.st3 {fill:#341a6e;stroke:none;stroke-linecap:butt;stroke-width:34}
		.st4 {fill:none;fill-rule:evenodd;font-size:12px;overflow:visible;stroke-linecap:square;stroke-miterlimit:3}
	]]>
	</style>

	<defs
   id="Patterns_And_Gradients">
		<linearGradient
   id="grad0-6"
   x1="0"
   y1="0"
   x2="1"
   y2="0">
			<stop
   offset="0"
   stop-color="#b77af4"
   stop-opacity="1"
   id="stop4" />
			<stop
   offset="1"
   stop-color="#773adc"
   stop-opacity="1"
   id="stop6" />
		</linearGradient>
	<linearGradient
   inkscape:collect="always"
   xlink:href="#grad0-6"
   id="linearGradient4564"
   x1="0"
   y1="89.25968"
   x2="30.497147"
   y2="89.25968"
   gradientTransform="scale(1.08338,0.92303715)"
   gradientUnits="userSpaceOnUse" /><linearGradient
   inkscape:collect="always"
   xlink:href="#grad0-6"
   id="linearGradient4566"
   x1="0"
   y1="89.259713"
   x2="30.497159"
   y2="89.259713"
   gradientTransform="scale(1.0833804,0.9230368)"
   gradientUnits="userSpaceOnUse" /></defs>
	<g
   id="g48"
   transform="translate(-34,-34.0049)">
		<title
   id="title10">Page-1</title>
		<g
   id="group3508-1"
   transform="translate(34,-34.0157)">
			<title
   id="title12">Kubernetes Workload</title>
			<g
   id="group3509-2">
				<title
   id="title14">Sheet.3509</title>
				<g
   id="shape3510-3"
   transform="translate(0,-14.3694)">
					<title
   id="title16">Sheet.3510</title>
					<path
   d="m 21.42,98.77 a 1.06457,1.03052 0 0 1 0.87,-1.02 L 33.04,95.83 V 88.85 A 1.44252,1.39639 -180 0 0 32.07,87.53 L 16.5,82.39 0,85.33 v 21.78 l 16.5,3.43 4.91,-1.92 z"
   class="st1"
   id="path18"
   inkscape:connector-curvature="0"
   style="fill:url(#linearGradient4564);stroke:none;stroke-width:34;stroke-linecap:butt" />
				</g>
				<g
   id="shape3511-7"
   transform="translate(0.267717,-14.648)">
					<title
   id="title21">Sheet.3511</title>
					<path
   d="m 16.85,110.45 14.87,-5.8 a 1.44567,1.39944 -180 0 0 0.91,-1.29 V 89.26 A 1.43937,1.39334 -180 0 0 31.65,87.94 L 16.64,83.01 a 1.37638,1.33236 -180 0 0 -0.7,-0.06 L 0.91,85.63 A 1.10866,1.07321 -180 0 0 0,86.69 v 19.72 a 1.10236,1.06711 -180 0 0 0.88,1.05 l 15.16,3.05 a 1.39528,1.35065 -180 0 0 0.81,-0.06 z"
   class="st2"
   id="path23"
   inkscape:connector-curvature="0"
   style="fill:none;stroke:none;stroke-width:34;stroke-linecap:butt" />
				</g>
				<g
   id="shape3512-9"
   transform="translate(0,-14.3694)">
					<title
   id="title26">Sheet.3512</title>
					<path
   d="m 0,85.33 v 21.78 l 16.66,3.43 V 82.39 Z m 7,20.14 -4.67,-0.91 V 87.76 L 7,87.01 Z m 7.28,1.27 -5.35,-0.84 V 86.73 l 5.35,-0.91 z"
   class="st3"
   id="path28"
   inkscape:connector-curvature="0"
   style="fill:#341a6e;stroke:none;stroke-width:34;stroke-linecap:butt" />
				</g>
				<g
   id="shape3513-11"
   transform="translate(23.9213,-0.278629)">
					<title
   id="title31">Sheet.3513</title>
					<path
   d="m 16.85,110.45 14.87,-5.8 a 1.43937,1.39334 -180 0 0 0.91,-1.29 V 89.25 A 1.43937,1.39334 -180 0 0 31.65,87.93 L 16.64,83 a 1.40157,1.35675 -180 0 0 -0.7,-0.05 L 0.91,85.62 A 1.10551,1.07016 -180 0 0 0,86.67 v 19.74 a 1.10551,1.07016 -180 0 0 0.88,1.05 l 15.16,3.05 a 1.39528,1.35065 -180 0 0 0.81,-0.06 z"
   class="st2"
   id="path33"
   inkscape:connector-curvature="0"
   style="fill:none;stroke:none;stroke-width:34;stroke-linecap:butt" />
				</g>
				<g
   id="shape3514-13"
   transform="translate(23.6535)">
					<title
   id="title36">Sheet.3514</title>
					<path
   d="M 16.5,82.39 0,85.33 v 21.78 l 16.5,3.43 15.64,-6.1 a 1.43937,1.39334 -180 0 0 0.9,-1.3 V 88.85 a 1.44252,1.39639 -180 0 0 -0.98,-1.32 z"
   class="st1"
   id="path38"
   inkscape:connector-curvature="0"
   style="fill:url(#linearGradient4566);stroke:none;stroke-width:34;stroke-linecap:butt" />
				</g>
				<g
   id="shape3515-16"
   transform="translate(23.6535)">
					<title
   id="title41">Sheet.3515</title>
					<path
   d="m 0,85.33 v 21.78 l 16.66,3.43 V 82.39 Z m 7,20.14 -4.67,-0.91 V 87.75 L 7,87 Z m 7.28,1.26 -5.35,-0.83 V 86.73 l 5.35,-0.91 z"
   class="st3"
   id="path43"
   inkscape:connector-curvature="0"
   style="fill:#341a6e;stroke:none;stroke-width:34;stroke-linecap:butt" />
				</g>
			</g>
		</g>
	</g>
</svg>

<?xml version="1.0" encoding="UTF-8" standalone="no"?>
<!DOCTYPE svg PUBLIC "-//W3C//DTD SVG 1.1//EN" "http://www.w3.org/Graphics/SVG/1.1/DTD/svg11.dtd">
<!-- Generated by Microsoft Visio, SVG Export Kubernetes Workload.svg Page-1 -->
<svg xmlns="http://www.w3.org/2000/svg" xmlns:xlink="http://www.w3.org/1999/xlink" xmlns:ev="http://www.w3.org/2001/xml-events"
		width="1.73185in" height="1.53521in" viewBox="0 0 124.693 110.535" xml:space="preserve" color-interpolation-filters="sRGB"
		class="st4">
	<style type="text/css">
	<![CDATA[
		.st1 {fill:url(#grad0-6);stroke:none;stroke-linecap:butt;stroke-width:34}
		.st2 {fill:none;stroke:none;stroke-linecap:butt;stroke-width:34}
		.st3 {fill:#341a6e;stroke:none;stroke-linecap:butt;stroke-width:34}
		.st4 {fill:none;fill-rule:evenodd;font-size:12px;overflow:visible;stroke-linecap:square;stroke-miterlimit:3}
	]]>
	</style>

	<defs id="Patterns_And_Gradients">
		<linearGradient id="grad0-6" x1="0" y1="0" x2="1" y2="0" gradientTransform="rotate(0 0.5 0.5)">
			<stop offset="0" stop-color="#b77af4" stop-opacity="1"/>
			<stop offset="1" stop-color="#773adc" stop-opacity="1"/>
		</linearGradient>
	</defs>
	<g>
		<title>Page-1</title>
		<g id="group3448-1" transform="translate(34,-34.0157)">
			<title>Kubernetes Workload</title>
			<g id="group3449-2">
				<title>Sheet.3449</title>
				<g id="shape3450-3" transform="translate(2.81775E-13,-14.3694)">
					<title>Sheet.3450</title>
					<path d="M21.42 98.77 A1.06457 1.03052 0 0 1 22.29 97.75 L33.04 95.83 L33.04 88.85 A1.44252 1.39639 -180 0 0
								 32.07 87.53 L16.5 82.39 L0 85.33 L0 107.11 L16.5 110.54 L21.41 108.62 L21.42 98.77 Z" class="st1"/>
				</g>
				<g id="shape3451-7" transform="translate(0.267717,-14.648)">
					<title>Sheet.3451</title>
					<path d="M16.85 110.45 L31.72 104.65 A1.44567 1.39944 -180 0 0 32.63 103.36 L32.63 89.26 A1.43937 1.39334 -180
								 0 0 31.65 87.94 L16.64 83.01 A1.37638 1.33236 -180 0 0 15.94 82.95 L0.91 85.63 A1.10866 1.07321
								 -180 0 0 -0 86.69 L0 106.41 A1.10236 1.06711 -180 0 0 0.88 107.46 L16.04 110.51 A1.39528 1.35065
								 -180 0 0 16.85 110.45 Z" class="st2"/>
				</g>
				<g id="shape3452-9" transform="translate(0,-14.3694)">
					<title>Sheet.3452</title>
					<path d="M0 85.33 L0 107.11 L16.66 110.54 L16.66 82.39 L0 85.33 ZM7 105.47 L2.33 104.56 L2.33 87.76 L7 87.01
								 L7 105.47 ZM14.28 106.74 L8.93 105.9 L8.93 86.73 L14.28 85.82 L14.28 106.74 Z" class="st3"/>
				</g>
				<g id="shape3453-11" transform="translate(23.9213,-0.278629)">
					<title>Sheet.3453</title>
					<path d="M16.85 110.45 L31.72 104.65 A1.43937 1.39334 -180 0 0 32.63 103.36 L32.63 89.25 A1.43937 1.39334 -180
								 0 0 31.65 87.93 L16.64 83 A1.40157 1.35675 -180 0 0 15.94 82.95 L0.91 85.62 A1.10551 1.07016 -180
								 0 0 -0 86.67 L0 106.41 A1.10551 1.07016 -180 0 0 0.88 107.46 L16.04 110.51 A1.39528 1.35065 -180
								 0 0 16.85 110.45 Z" class="st2"/>
				</g>
				<g id="shape3454-13" transform="translate(23.6535,2.13163E-13)">
					<title>Sheet.3454</title>
					<path d="M16.5 82.39 L0 85.33 L0 107.11 L16.5 110.54 L32.14 104.44 A1.43937 1.39334 -180 0 0 33.04 103.14 L33.04
								 88.85 A1.44252 1.39639 -180 0 0 32.06 87.53 L16.5 82.39 Z" class="st1"/>
				</g>
				<g id="shape3455-16" transform="translate(23.6535,2.13163E-13)">
					<title>Sheet.3455</title>
					<path d="M0 85.33 L0 107.11 L16.66 110.54 L16.66 82.39 L0 85.33 ZM7 105.47 L2.33 104.56 L2.33 87.75 L7 87 L7
								 105.47 ZM14.28 106.73 L8.93 105.9 L8.93 86.73 L14.28 85.82 L14.28 106.73 Z" class="st3"/>
				</g>
			</g>
		</g>
	</g>
</svg>
